third_party/noto/noto_2/emoji_u1f50f.svg

<svg enable-background="new 0 0 128 128" viewBox="0 0 128 128" xmlns="http://www.w3.org/2000/svg"><path d="M61.53,78.36h0.77c5.55,0,10.05-4.5,10.05-10.05V29.99c0-5.69-4.65-10.34-10.34-10.34H42.09 c-5.59,0-10.17,4.58-10.17,10.17v20.49c0,2.13-1.73,3.86-3.86,3.86h-7.67c-2.13,0-3.86-1.73-3.86-3.86V29.99 c0-14.15,11.58-25.74,25.74-25.74H62.3c14.05,0,25.45,11.39,25.45,25.45v38.38c0,14.12-11.55,25.68-25.68,25.68h-0.54V78.36z" fill="#BDBDBD"/><g opacity=".2"><path d="m62.3 7.26c12.38 0 22.45 10.07 22.45 22.45v38.38c0 11.67-8.87 21.31-20.22 22.54v-9.46c6.14-1.06 10.82-6.42 10.82-12.86v-38.32c0-7.35-5.98-13.34-13.34-13.34h-19.92c-7.26 0-13.17 5.91-13.17 13.17v20.49c0 0.48-0.39 0.86-0.86 0.86h-7.67c-0.48 0-0.86-0.39-0.86-0.86v-20.32c0-12.54 10.2-22.74 22.74-22.74h20.03m0-2.99h-20.04c-14.15 0-25.74 11.58-25.74 25.74v20.33c0 2.13 1.73 3.86 3.86 3.86h7.67c2.13 0 3.86-1.73 3.86-3.86v-20.5c0-5.59 4.58-10.17 10.17-10.17h19.91c5.69 0 10.34 4.65 10.34 10.34v38.32c0 5.55-4.5 10.05-10.05 10.05h-0.77v15.4h0.54c14.12 0 25.68-11.55 25.68-25.68v-38.38c0.02-14.06-11.38-25.45-25.43-25.45z" fill="#424242"/></g><linearGradient id="d" x1="52.136" x2="52.136" y1="123.21" y2="50.192" gradientUnits="userSpaceOnUse"><stop stop-color="#FFA000" offset=".0053611"/><stop stop-color="#FFC107" offset="1"/></linearGradient><path d="m91.02 123.54h-77.77c-4 0-7.25-3.25-7.25-7.25v-59.1c0-4 3.25-7.25 7.25-7.25h77.78c4 0 7.25 3.25 7.25 7.25v59.1c-0.01 4.01-3.25 7.25-7.26 7.25z" fill="url(#d)"/><g opacity=".2"><path d="m91.02 52.94c2.34 0 4.25 1.91 4.25 4.25v59.1c0 2.34-1.91 4.25-4.25 4.25h-77.77c-2.34 0-4.25-1.91-4.25-4.25v-59.1c0-2.34 1.91-4.25 4.25-4.25h77.77m0-3h-77.77c-4 0-7.25 3.25-7.25 7.25v59.1c0 4 3.25 7.25 7.25 7.25h77.78c4 0 7.25-3.25 7.25-7.25v-59.1c-0.01-4-3.25-7.25-7.26-7.25z" fill="#424242"/></g><linearGradient id="c" x1="73.441" x2="73.441" y1="66.804" y2="105.4" gradientUnits="userSpaceOnUse"><stop stop-color="#E0E0E0" offset="0"/><stop stop-color="#9E9E9E" offset=".9954"/></linearGradient><path d="m124 66.42c-12 0.01-31.01-0.44-46.37-3.5-24.43-4.86-28.26 10.4-50.32 17.33-4.56 1.43-4.43 3.91-4.43 3.91s-0.19 2.48 4.37 3.91c22.06 6.93 25.96 22.19 50.39 17.33 15.36-3.06 34.36-3.52 46.36-3.5v-35.48z" fill="url(#c)"/><path d="m80.23 85.31h-56.15c-0.68 0-1.23-0.55-1.23-1.23s0.55-1.23 1.23-1.23h56.18c0.61-3.46 3.63-6.08 7.27-6.08 4.09 0 7.4 3.32 7.4 7.39 0 4.09-3.31 7.4-7.4 7.4-3.7 0-6.75-2.71-7.3-6.25z" fill="#757575"/><g opacity=".2"><path d="m87.52 79.74c2.44 0 4.42 1.98 4.42 4.41 0 2.44-1.98 4.42-4.44 4.42-2.18 0-4-1.56-4.33-3.72l-0.12-0.76 0.13-0.73c0.38-2.09 2.2-3.62 4.34-3.62m0-2.97c-3.64 0-6.66 2.62-7.27 6.08h-56.17c-0.68 0-1.23 0.55-1.23 1.23s0.55 1.23 1.23 1.23h56.16c0.55 3.53 3.59 6.24 7.27 6.24h0.02 0.02c4.08 0 7.38-3.31 7.38-7.4-0.01-4.07-3.32-7.38-7.41-7.38z" fill="#424242"/></g><g opacity=".2"><path d="m68.72 64.98c2.52 0 5.2 0.29 8.18 0.88 11.34 2.26 26.06 3.45 43.81 3.55v29.49c-17.74 0.1-32.47 1.3-43.81 3.55-2.98 0.59-5.66 0.88-8.18 0.88-8.69 0-13.94-3.49-20.58-7.9-5.28-3.51-11.27-7.49-20-10.23-1.2-0.38-1.8-0.79-2.09-1.05 0.29-0.26 0.89-0.67 2.09-1.05 8.72-2.74 14.71-6.72 20-10.23 6.63-4.4 11.88-7.89 20.58-7.89m0-3c-16.99 0-22.36 12.26-41.48 18.27-4.56 1.43-4.39 3.91-4.39 3.91s-0.17 2.48 4.39 3.91c19.12 6.01 24.49 18.27 41.48 18.27 2.62 0 5.51-0.29 8.76-0.94 15.16-3.02 33.56-3.5 45.73-3.5h0.49v-35.48h-0.49c-12.17 0-30.58-0.49-45.73-3.5-3.26-0.65-6.15-0.94-8.76-0.94z" fill="#424242"/></g><linearGradient id="b" x1="157.97" x2="157.97" y1="11.757" y2="18.061" gradientTransform="matrix(4.4897e-11 1 1 -4.4897e-11 98.698 -73.86)" gradientUnits="userSpaceOnUse"><stop stop-color="#FFC107" offset="0"/><stop stop-color="#FFA000" offset="1"/></linearGradient><path d="m116 106.29v-44.36c-2.72 0-4.93 2.21-4.93 4.93v34.5c0 2.72 2.21 4.93 4.93 4.93z" fill="url(#b)"/><linearGradient id="a" x1="120" x2="120" y1="59.836" y2="114.78" gradientUnits="userSpaceOnUse"><stop stop-color="#616161" offset="0"/><stop stop-color="#212121" offset="1"/></linearGradient><polygon points="124 63.37 116 61.98 116 106.34 124 104.94" fill="url(#a)"/><g opacity=".2"><path d="m118 64.36 4 0.7v38.21l-4 0.7v-39.61m-2-2.38v44.35l8-1.39v-41.57l-8-1.39z" fill="#eee"/></g></svg>

<svg width="128" height="128" style="enable-background:new 0 0 128 128;" xmlns="http://www.w3.org/2000/svg" xmlns:xlink="http://www.w3.org/1999/xlink">
  <g id="Layer_1">
    <g>
      <path d="M61.53,78.36h0.77c5.55,0,10.05-4.5,10.05-10.05V29.99c0-5.69-4.65-10.34-10.34-10.34H42.09 c-5.59,0-10.17,4.58-10.17,10.17v20.49c0,2.13-1.73,3.86-3.86,3.86h-7.67c-2.13,0-3.86-1.73-3.86-3.86V29.99 c0-14.15,11.58-25.74,25.74-25.74H62.3c14.05,0,25.45,11.39,25.45,25.45v38.38c0,14.12-11.55,25.68-25.68,25.68h-0.54V78.36z" style="fill:#BDBDBD;"/>
      <g style="opacity:0.2;">
        <path d="M62.3,7.26c12.38,0,22.45,10.07,22.45,22.45v38.38c0,11.67-8.87,21.31-20.22,22.54v-9.46 c6.14-1.06,10.82-6.42,10.82-12.86V29.99c0-7.35-5.98-13.34-13.34-13.34H42.09c-7.26,0-13.17,5.91-13.17,13.17v20.49 c0,0.48-0.39,0.86-0.86,0.86h-7.67c-0.48,0-0.86-0.39-0.86-0.86V29.99c0-12.54,10.2-22.74,22.74-22.74H62.3 M62.3,4.26H42.26 c-14.15,0-25.74,11.58-25.74,25.74v20.33c0,2.13,1.73,3.86,3.86,3.86h7.67c2.13,0,3.86-1.73,3.86-3.86V29.83 c0-5.59,4.58-10.17,10.17-10.17h19.91c5.69,0,10.34,4.65,10.34,10.34v38.32c0,5.55-4.5,10.05-10.05,10.05h-0.77v15.4h0.54 c14.12,0,25.68-11.55,25.68-25.68V29.71C87.75,15.65,76.35,4.26,62.3,4.26L62.3,4.26z" style="fill:#424242;"/>
      </g>
      <linearGradient id="SVGID_1_" gradientUnits="userSpaceOnUse" x1="52.1359" x2="52.1359" y1="123.2103" y2="50.1922">
        <stop offset="5.361129e-03" style="stop-color:#FFA000"/>
        <stop offset="1" style="stop-color:#FFC107"/>
      </linearGradient>
      <path d="M91.02,123.54H13.25c-4,0-7.25-3.25-7.25-7.25v-59.1c0-4,3.25-7.25,7.25-7.25h77.78 c4,0,7.25,3.25,7.25,7.25v59.1C98.27,120.3,95.03,123.54,91.02,123.54z" style="fill:url(#SVGID_1_);"/>
      <g style="opacity:0.2;">
        <path d="M91.02,52.94c2.34,0,4.25,1.91,4.25,4.25v59.1c0,2.34-1.91,4.25-4.25,4.25H13.25 c-2.34,0-4.25-1.91-4.25-4.25v-59.1c0-2.34,1.91-4.25,4.25-4.25H91.02 M91.02,49.94H13.25c-4,0-7.25,3.25-7.25,7.25v59.1 c0,4,3.25,7.25,7.25,7.25h77.78c4,0,7.25-3.25,7.25-7.25v-59.1C98.27,53.19,95.03,49.94,91.02,49.94L91.02,49.94z" style="fill:#424242;"/>
      </g>
    </g>
    <g>
      <linearGradient id="SVGID_3_" gradientUnits="userSpaceOnUse" x1="73.4407" x2="73.4407" y1="66.8042" y2="105.3998">
        <stop offset="0" style="stop-color:#E0E0E0"/>
        <stop offset="0.9954" style="stop-color:#9E9E9E"/>
      </linearGradient>
      <path d="M124,66.42c-12,0.01-31.01-0.44-46.37-3.5c-24.43-4.86-28.26,10.4-50.32,17.33 c-4.56,1.43-4.43,3.91-4.43,3.91s-0.19,2.48,4.37,3.91C49.31,95,53.21,110.26,77.64,105.4C93,102.34,112,101.88,124,101.9V66.42z" style="fill:url(#SVGID_3_);"/>
      <path d="M80.23,85.31H24.08c-0.68,0-1.23-0.55-1.23-1.23c0-0.68,0.55-1.23,1.23-1.23h56.18 c0.61-3.46,3.63-6.08,7.27-6.08c4.09,0,7.4,3.32,7.4,7.39c0,4.09-3.31,7.4-7.4,7.4C83.83,91.56,80.78,88.85,80.23,85.31z" style="fill:#757575;"/>
      <g style="opacity:0.2;">
        <path d="M87.52,79.74c2.44,0,4.42,1.98,4.42,4.41c0,2.44-1.98,4.42-4.44,4.42c-2.18,0-4-1.56-4.33-3.72 l-0.12-0.76l0.13-0.73C83.56,81.27,85.38,79.74,87.52,79.74 M87.52,76.77c-3.64,0-6.66,2.62-7.27,6.08H24.08 c-0.68,0-1.23,0.55-1.23,1.23c0,0.68,0.55,1.23,1.23,1.23h56.16c0.55,3.53,3.59,6.24,7.27,6.24c0.01,0,0.01,0,0.02,0 c0.01,0,0.01,0,0.02,0c4.08,0,7.38-3.31,7.38-7.4C94.92,80.08,91.61,76.77,87.52,76.77L87.52,76.77z" style="fill:#424242;"/>
      </g>
      <g style="opacity:0.2;">
        <path d="M68.72,64.98c2.52,0,5.2,0.29,8.18,0.88c11.34,2.26,26.06,3.45,43.81,3.55V98.9 c-17.74,0.1-32.47,1.3-43.81,3.55c-2.98,0.59-5.66,0.88-8.18,0.88c-8.69,0-13.94-3.49-20.58-7.9c-5.28-3.51-11.27-7.49-20-10.23 c-1.2-0.38-1.8-0.79-2.09-1.05c0.29-0.26,0.89-0.67,2.09-1.05c8.72-2.74,14.71-6.72,20-10.23 C54.77,68.47,60.02,64.98,68.72,64.98 M68.72,61.98c-16.99,0-22.36,12.26-41.48,18.27c-4.56,1.43-4.39,3.91-4.39,3.91 s-0.17,2.48,4.39,3.91c19.12,6.01,24.49,18.27,41.48,18.27c2.62,0,5.51-0.29,8.76-0.94c15.16-3.02,33.56-3.5,45.73-3.5 c0.16,0,0.33,0,0.49,0V66.42c-0.16,0-0.32,0-0.49,0c-12.17,0-30.58-0.49-45.73-3.5C74.22,62.27,71.33,61.98,68.72,61.98 L68.72,61.98z" style="fill:#424242;"/>
      </g>
      <linearGradient id="SVGID_4_" gradientTransform="matrix(4.489700e-11 1 1 -4.489700e-11 98.6985 -73.8595)" gradientUnits="userSpaceOnUse" x1="157.9696" x2="157.9696" y1="11.7572" y2="18.0613">
        <stop offset="0" style="stop-color:#FFC107"/>
        <stop offset="1" style="stop-color:#FFA000"/>
      </linearGradient>
      <path d="M116,106.29V61.93h0c-2.72,0-4.93,2.21-4.93,4.93v34.5 C111.07,104.08,113.28,106.29,116,106.29L116,106.29z" style="fill:url(#SVGID_4_);"/>
      <linearGradient id="SVGID_5_" gradientUnits="userSpaceOnUse" x1="120" x2="120" y1="59.8357" y2="114.7814">
        <stop offset="0" style="stop-color:#616161"/>
        <stop offset="1" style="stop-color:#212121"/>
      </linearGradient>
      <polygon points="124,63.37 116,61.98 116,106.34 124,104.94 " style="fill:url(#SVGID_5_);"/>
      <g style="opacity:0.2;">
        <path d="M118,64.36l4,0.7v38.21l-4,0.7V64.36 M116,61.98v44.35l8-1.39V63.37L116,61.98L116,61.98z" style="fill:#EEEEEE;"/>
      </g>
    </g>
  </g>
  <g id="Layer_2" style="display:none;">
    <g style="display:inline;">
      <g style="opacity:0.6;">
        <circle cx="64" cy="64" r="28" style="opacity:0.61;fill:none;stroke:#000000;stroke-width:0.2625;stroke-miterlimit:10;"/>
        <line style="opacity:0.61;fill:none;stroke:#000000;stroke-miterlimit:10;" x1="83.5" x2="83.5" y1="0" y2="128"/>
        <line style="opacity:0.61;fill:none;stroke:#000000;stroke-miterlimit:10;" x1="43.5" x2="43.5" y1="0" y2="128"/>
        <line style="opacity:0.61;fill:none;stroke:#000000;stroke-miterlimit:10;" x1="63.5" x2="63.5" y1="0" y2="128"/>
        <line style="opacity:0.61;fill:none;stroke:#000000;stroke-miterlimit:10;" x1="128" x2="0" y1="64.5" y2="64.5"/>
        <line style="opacity:0.61;fill:none;stroke:#000000;stroke-miterlimit:10;" x1="128" x2="0" y1="44.5" y2="44.5"/>
        <line style="opacity:0.61;fill:none;stroke:#000000;stroke-miterlimit:10;" x1="128" x2="0" y1="83.5" y2="83.5"/>
        <line style="opacity:0.61;fill:none;stroke:#000000;stroke-width:0.25;stroke-miterlimit:10;" x1="128" x2="0" y1="128" y2="0"/>
        <line style="opacity:0.61;fill:none;stroke:#000000;stroke-width:0.25;stroke-miterlimit:10;" x1="0" x2="128" y1="128" y2="0"/>
        <g style="opacity:0.61;">
          <path d="M64,4.26c32.94,0,59.74,26.8,59.74,59.74S96.94,123.74,64,123.74S4.26,96.94,4.26,64S31.06,4.26,64,4.26 M64,4 C30.86,4,4,30.86,4,64s26.86,60,60,60s60-26.86,60-60S97.14,4,64,4L64,4z"/>
        </g>
        <path d="M115.5,108.47c0,4.43-3.59,8.03-8.03,8.03H19.53 c-4.43,0-8.03-3.59-8.03-8.03V20.53c0-4.43,3.59-8.03,8.03-8.03h87.94c4.43,0,8.03,3.59,8.03,8.03V108.47z" style="opacity:0.61;fill:none;stroke:#000000;stroke-miterlimit:10;"/>
        <path d="M107.5,116.5c0,4.42-3.58,8-8,8h-72 c-4.42,0-8-3.58-8-8v-104c0-4.42,3.58-8,8-8h72c4.42,0,8,3.58,8,8V116.5z" style="opacity:0.61;fill:none;stroke:#000000;stroke-miterlimit:10;"/>
        <path d="M123.5,98.27c0,5.65-4.58,10.23-10.23,10.23H13.73 c-5.65,0-10.23-4.58-10.23-10.23V30.73c0-5.65,4.58-10.23,10.23-10.23h99.54c5.65,0,10.23,4.58,10.23,10.23V98.27z" style="opacity:0.61;fill:none;stroke:#000000;stroke-miterlimit:10;"/>
      </g>
      <g>
        <g style="opacity:0.2;">
          <defs>
            <rect id="SVGID_2_" height="128" style="opacity:0.2;" width="128" x="0"/>
          </defs>
          <clipPath id="SVGID_6_">
            <use style="overflow:visible;" xlink:href="#SVGID_2_"/>
          </clipPath>
          <g style="clip-path:url(#SVGID_6_);">
            <g>
              <line style="fill:none;stroke:#000000;stroke-miterlimit:10;" x1="-28.5" x2="-28.5" y1="160" y2="-32"/>
              <line style="fill:none;stroke:#000000;stroke-miterlimit:10;" x1="-24.5" x2="-24.5" y1="160" y2="-32"/>
              <line style="fill:none;stroke:#000000;stroke-miterlimit:10;" x1="-20.5" x2="-20.5" y1="160" y2="-32"/>
              <line style="fill:none;stroke:#000000;stroke-miterlimit:10;" x1="-16.5" x2="-16.5" y1="160" y2="-32"/>
              <line style="fill:none;stroke:#000000;stroke-miterlimit:10;" x1="-12.5" x2="-12.5" y1="160" y2="-32"/>
              <line style="fill:none;stroke:#000000;stroke-miterlimit:10;" x1="-8.5" x2="-8.5" y1="160" y2="-32"/>
              <line style="fill:none;stroke:#000000;stroke-miterlimit:10;" x1="-4.5" x2="-4.5" y1="160" y2="-32"/>
              <line style="fill:none;stroke:#000000;stroke-miterlimit:10;" x1="-0.5" x2="-0.5" y1="160" y2="-32"/>
              <line style="fill:none;stroke:#000000;stroke-miterlimit:10;" x1="3.5" x2="3.5" y1="160" y2="-32"/>
              <line style="fill:none;stroke:#000000;stroke-miterlimit:10;" x1="7.5" x2="7.5" y1="160" y2="-32"/>
              <line style="fill:none;stroke:#000000;stroke-miterlimit:10;" x1="11.5" x2="11.5" y1="160" y2="-32"/>
              <line style="fill:none;stroke:#000000;stroke-miterlimit:10;" x1="15.5" x2="15.5" y1="160" y2="-32"/>
              <line style="fill:none;stroke:#000000;stroke-miterlimit:10;" x1="19.5" x2="19.5" y1="160" y2="-32"/>
              <line style="fill:none;stroke:#000000;stroke-miterlimit:10;" x1="23.5" x2="23.5" y1="160" y2="-32"/>
              <line style="fill:none;stroke:#000000;stroke-miterlimit:10;" x1="27.5" x2="27.5" y1="160" y2="-32"/>
              <line style="fill:none;stroke:#000000;stroke-miterlimit:10;" x1="31.5" x2="31.5" y1="160" y2="-32"/>
              <line style="fill:none;stroke:#000000;stroke-miterlimit:10;" x1="35.5" x2="35.5" y1="160" y2="-32"/>
              <line style="fill:none;stroke:#000000;stroke-miterlimit:10;" x1="39.5" x2="39.5" y1="160" y2="-32"/>
              <line style="fill:none;stroke:#000000;stroke-miterlimit:10;" x1="43.5" x2="43.5" y1="160" y2="-32"/>
              <line style="fill:none;stroke:#000000;stroke-miterlimit:10;" x1="47.5" x2="47.5" y1="160" y2="-32"/>
              <line style="fill:none;stroke:#000000;stroke-miterlimit:10;" x1="51.5" x2="51.5" y1="160" y2="-32"/>
              <line style="fill:none;stroke:#000000;stroke-miterlimit:10;" x1="55.5" x2="55.5" y1="160" y2="-32"/>
              <line style="fill:none;stroke:#000000;stroke-miterlimit:10;" x1="59.5" x2="59.5" y1="160" y2="-32"/>
              <line style="fill:none;stroke:#000000;stroke-miterlimit:10;" x1="63.5" x2="63.5" y1="160" y2="-32"/>
              <line style="fill:none;stroke:#000000;stroke-miterlimit:10;" x1="67.5" x2="67.5" y1="160" y2="-32"/>
              <line style="fill:none;stroke:#000000;stroke-miterlimit:10;" x1="71.5" x2="71.5" y1="160" y2="-32"/>
              <line style="fill:none;stroke:#000000;stroke-miterlimit:10;" x1="75.5" x2="75.5" y1="160" y2="-32"/>
              <line style="fill:none;stroke:#000000;stroke-miterlimit:10;" x1="79.5" x2="79.5" y1="160" y2="-32"/>
              <line style="fill:none;stroke:#000000;stroke-miterlimit:10;" x1="83.5" x2="83.5" y1="160" y2="-32"/>
              <line style="fill:none;stroke:#000000;stroke-miterlimit:10;" x1="87.5" x2="87.5" y1="160" y2="-32"/>
              <line style="fill:none;stroke:#000000;stroke-miterlimit:10;" x1="91.5" x2="91.5" y1="160" y2="-32"/>
              <line style="fill:none;stroke:#000000;stroke-miterlimit:10;" x1="95.5" x2="95.5" y1="160" y2="-32"/>
              <line style="fill:none;stroke:#000000;stroke-miterlimit:10;" x1="99.5" x2="99.5" y1="160" y2="-32"/>
              <line style="fill:none;stroke:#000000;stroke-miterlimit:10;" x1="103.5" x2="103.5" y1="160" y2="-32"/>
              <line style="fill:none;stroke:#000000;stroke-miterlimit:10;" x1="107.5" x2="107.5" y1="160" y2="-32"/>
              <line style="fill:none;stroke:#000000;stroke-miterlimit:10;" x1="111.5" x2="111.5" y1="160" y2="-32"/>
              <line style="fill:none;stroke:#000000;stroke-miterlimit:10;" x1="115.5" x2="115.5" y1="160" y2="-32"/>
              <line style="fill:none;stroke:#000000;stroke-miterlimit:10;" x1="119.5" x2="119.5" y1="160" y2="-32"/>
              <line style="fill:none;stroke:#000000;stroke-miterlimit:10;" x1="123.5" x2="123.5" y1="160" y2="-32"/>
              <line style="fill:none;stroke:#000000;stroke-miterlimit:10;" x1="127.5" x2="127.5" y1="160" y2="-32"/>
              <line style="fill:none;stroke:#000000;stroke-miterlimit:10;" x1="131.5" x2="131.5" y1="160" y2="-32"/>
              <line style="fill:none;stroke:#000000;stroke-miterlimit:10;" x1="135.5" x2="135.5" y1="160" y2="-32"/>
              <line style="fill:none;stroke:#000000;stroke-miterlimit:10;" x1="136.5" x2="136.5" y1="166" y2="-26"/>
              <line style="fill:none;stroke:#000000;stroke-miterlimit:10;" x1="143.5" x2="143.5" y1="160" y2="-32"/>
              <line style="fill:none;stroke:#000000;stroke-miterlimit:10;" x1="147.5" x2="147.5" y1="160" y2="-32"/>
              <line style="fill:none;stroke:#000000;stroke-miterlimit:10;" x1="151.5" x2="151.5" y1="160" y2="-32"/>
              <line style="fill:none;stroke:#000000;stroke-miterlimit:10;" x1="155.5" x2="155.5" y1="160" y2="-32"/>
            </g>
            <g>
              <line style="fill:none;stroke:#000000;stroke-miterlimit:10;" x1="-32" x2="160" y1="-27.5" y2="-27.5"/>
              <line style="fill:none;stroke:#000000;stroke-miterlimit:10;" x1="-32" x2="160" y1="-23.5" y2="-23.5"/>
              <line style="fill:none;stroke:#000000;stroke-miterlimit:10;" x1="-32" x2="160" y1="-19.5" y2="-19.5"/>
              <line style="fill:none;stroke:#000000;stroke-miterlimit:10;" x1="-32" x2="160" y1="-15.5" y2="-15.5"/>
              <line style="fill:none;stroke:#000000;stroke-miterlimit:10;" x1="-32" x2="160" y1="-11.5" y2="-11.5"/>
              <line style="fill:none;stroke:#000000;stroke-miterlimit:10;" x1="-32" x2="160" y1="-7.5" y2="-7.5"/>
              <line style="fill:none;stroke:#000000;stroke-miterlimit:10;" x1="-32" x2="160" y1="-3.5" y2="-3.5"/>
              <line style="fill:none;stroke:#000000;stroke-miterlimit:10;" x1="-32" x2="160" y1="0.5" y2="0.5"/>
              <line style="fill:none;stroke:#000000;stroke-miterlimit:10;" x1="-32" x2="160" y1="4.5" y2="4.5"/>
              <line style="fill:none;stroke:#000000;stroke-miterlimit:10;" x1="-32" x2="160" y1="8.5" y2="8.5"/>
              <line style="fill:none;stroke:#000000;stroke-miterlimit:10;" x1="-32" x2="160" y1="12.5" y2="12.5"/>
              <line style="fill:none;stroke:#000000;stroke-miterlimit:10;" x1="-32" x2="160" y1="16.5" y2="16.5"/>
              <line style="fill:none;stroke:#000000;stroke-miterlimit:10;" x1="-32" x2="160" y1="20.5" y2="20.5"/>
              <line style="fill:none;stroke:#000000;stroke-miterlimit:10;" x1="-32" x2="160" y1="24.5" y2="24.5"/>
              <line style="fill:none;stroke:#000000;stroke-miterlimit:10;" x1="-32" x2="160" y1="28.5" y2="28.5"/>
              <line style="fill:none;stroke:#000000;stroke-miterlimit:10;" x1="-32" x2="160" y1="32.5" y2="32.5"/>
              <line style="fill:none;stroke:#000000;stroke-miterlimit:10;" x1="-32" x2="160" y1="36.5" y2="36.5"/>
              <line style="fill:none;stroke:#000000;stroke-miterlimit:10;" x1="-32" x2="160" y1="40.5" y2="40.5"/>
              <line style="fill:none;stroke:#000000;stroke-miterlimit:10;" x1="-32" x2="160" y1="44.5" y2="44.5"/>
              <line style="fill:none;stroke:#000000;stroke-miterlimit:10;" x1="-32" x2="160" y1="48.5" y2="48.5"/>
              <line style="fill:none;stroke:#000000;stroke-miterlimit:10;" x1="-32" x2="160" y1="52.5" y2="52.5"/>
              <line style="fill:none;stroke:#000000;stroke-miterlimit:10;" x1="-32" x2="160" y1="56.5" y2="56.5"/>
              <line style="fill:none;stroke:#000000;stroke-miterlimit:10;" x1="-32" x2="160" y1="60.5" y2="60.5"/>
              <line style="fill:none;stroke:#000000;stroke-miterlimit:10;" x1="-32" x2="160" y1="64.5" y2="64.5"/>
              <line style="fill:none;stroke:#000000;stroke-miterlimit:10;" x1="-32" x2="160" y1="68.5" y2="68.5"/>
              <line style="fill:none;stroke:#000000;stroke-miterlimit:10;" x1="-32" x2="160" y1="72.5" y2="72.5"/>
              <line style="fill:none;stroke:#000000;stroke-miterlimit:10;" x1="-32" x2="160" y1="76.5" y2="76.5"/>
              <line style="fill:none;stroke:#000000;stroke-miterlimit:10;" x1="-32" x2="160" y1="80.5" y2="80.5"/>
              <line style="fill:none;stroke:#000000;stroke-miterlimit:10;" x1="-32" x2="160" y1="84.5" y2="84.5"/>
              <line style="fill:none;stroke:#000000;stroke-miterlimit:10;" x1="-32" x2="160" y1="88.5" y2="88.5"/>
              <line style="fill:none;stroke:#000000;stroke-miterlimit:10;" x1="-32" x2="160" y1="92.5" y2="92.5"/>
              <line style="fill:none;stroke:#000000;stroke-miterlimit:10;" x1="-32" x2="160" y1="96.5" y2="96.5"/>
              <line style="fill:none;stroke:#000000;stroke-miterlimit:10;" x1="-32" x2="160" y1="100.5" y2="100.5"/>
              <line style="fill:none;stroke:#000000;stroke-miterlimit:10;" x1="-32" x2="160" y1="104.5" y2="104.5"/>
              <line style="fill:none;stroke:#000000;stroke-miterlimit:10;" x1="-32" x2="160" y1="108.5" y2="108.5"/>
              <line style="fill:none;stroke:#000000;stroke-miterlimit:10;" x1="-32" x2="160" y1="112.5" y2="112.5"/>
              <line style="fill:none;stroke:#000000;stroke-miterlimit:10;" x1="-32" x2="160" y1="116.5" y2="116.5"/>
              <line style="fill:none;stroke:#000000;stroke-miterlimit:10;" x1="-32" x2="160" y1="120.5" y2="120.5"/>
              <line style="fill:none;stroke:#000000;stroke-miterlimit:10;" x1="-32" x2="160" y1="124.5" y2="124.5"/>
              <line style="fill:none;stroke:#000000;stroke-miterlimit:10;" x1="-32" x2="160" y1="128.5" y2="128.5"/>
              <line style="fill:none;stroke:#000000;stroke-miterlimit:10;" x1="-32" x2="160" y1="132.5" y2="132.5"/>
              <line style="fill:none;stroke:#000000;stroke-miterlimit:10;" x1="-32" x2="160" y1="136.5" y2="136.5"/>
              <line style="fill:none;stroke:#000000;stroke-miterlimit:10;" x1="-32" x2="160" y1="140.5" y2="140.5"/>
              <line style="fill:none;stroke:#000000;stroke-miterlimit:10;" x1="-32" x2="160" y1="144.5" y2="144.5"/>
              <line style="fill:none;stroke:#000000;stroke-miterlimit:10;" x1="-32" x2="160" y1="148.5" y2="148.5"/>
              <line style="fill:none;stroke:#000000;stroke-miterlimit:10;" x1="-32" x2="160" y1="152.5" y2="152.5"/>
              <line style="fill:none;stroke:#000000;stroke-miterlimit:10;" x1="-32" x2="160" y1="156.5" y2="156.5"/>
            </g>
            <path d="M160-32v192H-32V-32H160 M160-32H-32v192h192V-32L160-32z"/>
          </g>
        </g>
        <g>
          <rect height="128" style="opacity:0.3;fill:#F44336;" width="4" x="0"/>
          <rect height="128" style="opacity:0.3;fill:#F44336;" width="4" x="124"/>
          <rect height="120" style="opacity:0.3;fill:#F44336;" transform="matrix(-1.836970e-16 1 -1 -1.836970e-16 66 -62)" width="4" x="62" y="-58"/>
          <rect height="120" style="opacity:0.3;fill:#F44336;" transform="matrix(-1.836970e-16 1 -1 -1.836970e-16 190 62)" width="4" x="62" y="66"/>
        </g>
      </g>
    </g>
  </g>
</svg>
